X:1
T:7 Lieder
T:Through the Long Days
T:7 Lieder
T:Edward Elgar
T:5. Through the Long Days Tage und Jahre gehen Op. 16, No. 2 
T:John Milton Hay German Lyrics by Ed. Sachs 
T:Creative Commons copyright waiver (CC0 1.0 Universal)
T:Creative Commons copyright waiver (CC0 1.0 Universal)
T:Creative Commons copyright waiver (CC0 1.0 Universal)
T:Creative Commons copyright waiver (CC0 1.0 Universal)
C:Edward Elgar
Z:John Milton Hay
Z:Creative Commons copyright waiver (CC0 1.0 Universal)
%%score 1 { ( 2 3 ) | 4 }
L:1/8
Q:1/8=66
M:3/8
K:Ab
V:1 treble nm="Voice"
V:2 treble nm="Piano"
V:3 treble 
V:4 bass 
V:1
"^Poco lento (M.M.)" z3 | z3 |!p! (E F E | E3/2 A/ A |"^cresc." G A G | G3/2 c/ !breath!c) | z3 | %7
w: ||Through the long|days and years|What will my|lov'd one be,||
w: ||Ta- ge und|Jah- re geh'n,|Wo wird mein|Lieb wohl sein,||
 z3 | z3 | z3 | z3 | z3 | z3 | z3 | z3 | z3 | z3 | z3 | z3 | z3 | z3 | z3 | z3 | z3 | z3 | z3 | %26
w: |||||||||||||||||||
w: |||||||||||||||||||
 z3 | z3 | z3 | z3 | z3 | z3 | z3 | z3 | z3 | z3 | z3 | z3 | z3 | z3 | z3 | z3 |] %42
w: ||||||||||||||||
w: ||||||||||||||||
V:2
!p! [DF]/[D-F]/!<(![FA]/[FA]/!>(![EG]/[EG]/!<)!!>)! |!mf! [Ac]/[Ac]/!>(![EA]/[EA]/E/E/!>)! | %2
!pp! [CE]/[CE]/[DE]/[DE]/[B,DE]/[B,DE]/ | [CE]/[CE]/[CE]/[CE]/[CE]/[CE]/ | z3 | z3 | z3 | z3 | z3 | %9
 z3 | z3 | z3 | z3 | z3 | z3 | z3 | z3 | z3 | z3 | z3 | z3 | z3 | z3 | z3 | z3 | z3 | z3 | z3 | %28
 z3 | z3 | z3 | z3 | z3 | z3 | z3 | z3 | z3 | z3 | z3 | z3 | z3 | z3 |] %42
V:3
 x DD | [C-E]CC/C/ | x3 | x3 | x3 | x3 | x3 | x3 | x3 | x3 | x3 | x3 | x3 | x3 | x3 | x3 | x3 | %17
 x3 | x3 | x3 | x3 | x3 | x3 | x3 | x3 | x3 | x3 | x3 | x3 | x3 | x3 | x3 | x3 | x3 | x3 | x3 | %36
 x3 | x3 | x3 | x3 | x3 | x3 |] %42
V:4
 [D,,D,]2 [B,,,B,,] |!ped! [A,,,A,,]3- | [A,,,A,,]!ped-up! z z | z3 | z3 | z3 | z3 | z3 | z3 | z3 | %10
 z3 | z3 | z3 | z3 | z3 | z3 | z3 | z3 | z3 | z3 | z3 | z3 | z3 | z3 | z3 | z3 | z3 | z3 | z3 | %29
 z3 | z3 | z3 | z3 | z3 | z3 | z3 | z3 | z3 | z3 | z3 | z3 | z3 |] %42

